!! 00026] TT[TB
!! Eigene Aufnahme
!!!OTL: Luoshui tian
!!!ARE: Asia, China,Guangdong, Qujiang
!! Ethnic Group: Han
!! II, 394 (1)
!!!SCT: C0244
!!!YEM: Copyright 1995, estate of Helmut Schaffrath.
**kern
*ICvox
*Ivox
*M3/4
*k[]
*C:
{8ee
8cc
8dd
4.ee
=1
8ee
8cc
8ee
4.dd}
=2
{8ee
8cc
8dd
4.a
=3
8a
8a
8dd
4.dd}
=4
{8a
8cc
8dd
4.ee
=5
8ee
8dd
8a
4.cc}
=6
{8cc
8cc
8ee
4.dd
=7
8cc
8a
8cc
4.a}
==
!!!AGN: Kinderlied, Er ge, Klage
!! Der Saenger Lai Yuan Shen war frueher selbst Landarbeiter. Heute ist
!!    er Student an der Guangzhouer Musikhochschule. Aufgenommen am 5.5.87
!!    Pinyin-Text der ersten Strophe vorhanden! ++ Verschiebung in Notation? +++
!!!ONB: ESAC (Essen Associative Code) Database: CHINA_073
!!!AMT: simple triple
!!!AIN: vox
!!!EED: Helmut Schaffrath
!!!EEV: 1.0
*-
